!!!SOCIAL_FUNCTION:	war songs
!!!REG: Great Lakes
!!!PDT:	1909
!!!OTL: No_129_I_Will_Start_Before_Noon.krn
**kern	**kern
*staff2	*staff1
=1-	=1-
*clefF4	*clefG2
*k[b-e-a-d-g-]	*k[b-e-a-d-g-]
*M3/4	*M3/4
.	a-q/
2.r	4a-/
.	4a-/
.	4f/
=2||	=2||
*M4/4	*M4/4
12GG-^/	4a-/
12r	.
12GG-/	.
12GG-^/	2.a-/
12r	.
12GG-/	.
12GG-^/	.
12r	.
12GG-/	.
12GG-^/	.
12r	.
12GG-/	.
=3||	=3||
*M3/4	*M3/4
.	a-q/
2.r	4f/
.	4f/
.	8f/L
.	8d-/J
=4	=4
2.r	4d-/
.	4d-/
.	4B-/
=5	=5
2.r	4d-/
.	4.d-/
.	8d-/
=6||	=6||
!!linebreak:original
*M5/4	*M5/4
1r	2.d-/
.	4.r
4r	.
.	8f/
=7	=7
1r	4.f/
.	8f/
.	4f/
.	4f/
4r	8f/L
.	8d-/J
=8||	=8||
*M3/4	*M3/4
2.r	4d-/
.	4d-/
.	4B-/
=9	=9
2.r	4d-/
.	[2d-/
=10	=10
2.r	4d-/]
.	8r
.	8d-/
.	4B-/
=11	=11
*M2/4	*M2/4
4A-\	2r
8A-\L	.
8F\J	.
=12	=12
*M2/4	*M2/4
4A-\	2r
8A-\L	.
8F\J	.
=13	=13
*M4/4	*M4/4
4A-\	1r
2.A-\	.
=14||	=14||
!!linebreak:original
*M3/4	*M3/4
A-q/	.
4F\	2.r
4F\	.
8F\L	.
8D-\J	.
=15	=15
2D-\	2.r
4D-\	.
=16	=16
2.D-\	2.r
==	==
*-	*-
